static/icons/mastodon.svg

<svg height="24" viewBox="0 0 24 24" width="24" xmlns="http://www.w3.org/2000/svg"><path d="m20.6808876 13.9388412c-.2730687 1.4048283-2.4457082 2.9422747-4.9409872 3.2402361-1.3011802.1552575-2.5822961.2979613-3.9483905.2353004-2.2341202-.1023605-3.99699574-.5332618-3.99699574-.5332618 0 .2174893.01341202.4245708.04023605.6182403.29045065 2.2048283 2.18626609 2.3369099 3.98208159 2.3984979 1.8125536.0620171 3.4265021-.4468884 3.4265021-.4468884l.0744635 1.6386266s-1.2678111.680794-3.5262875.8060086c-1.2453863.0684549-2.79173823-.0313305-4.59281119-.5080473-3.90622317-1.0339055-4.57800429-5.1977467-4.68079399-9.4226394-.03133047-1.2543992-.01201717-2.4372318-.01201717-3.42650218 0-4.32017168 2.8305794-5.58648069 2.8305794-5.58648069 1.42725322-.6554721 3.87628756-.93111588 6.42231755-.95193133h.0625537c2.54603.02081545 4.9966738.29645923 6.4238197.95193133 0 0 2.8304721 1.26630901 2.8304721 5.58648069 0 0 .0355151 3.18744638-.3947424 5.40042918" fill="#3088d4"/><path d="m17.7368961 8.87356223v5.23100857h-2.0724249v-5.0772532c0-1.07027897-.4503218-1.61351932-1.3510729-1.61351932-.9959228 0-1.4950644.6444206-1.4950644 1.91866953v2.77907729h-2.0601931v-2.77907729c0-1.27424893-.499249-1.91866953-1.4951717-1.91866953-.90075107 0-1.35107296.54324035-1.35107296 1.61351932v5.0772532h-2.0724249v-5.23100857c0-1.06909871.27221031-1.91866953.81899142-2.5472103.5638412-.62854077 1.30225322-.95075107 2.21888412-.95075107 1.06051502 0 1.86362662.40761802 2.39463522 1.22296137l.5162017.86534335.516309-.86534335c.5309013-.81534335 1.3340129-1.22296137 2.3946352-1.22296137.9165236 0 1.6549356.3222103 2.2188841.95075107.5466738.62854077.8188841 1.47811159.8188841 2.5472103" fill="#fff"/></svg>

<?xml version="1.0" encoding="UTF-8"?>
<svg width="24px" height="24px" viewBox="0 0 24 24" version="1.1" xmlns="http://www.w3.org/2000/svg" xmlns:xlink="http://www.w3.org/1999/xlink">
  <path d="M20.6808876,13.9388412 C20.4078189,15.3436695 18.2351794,16.8811159 15.7399004,17.1790773 C14.4387202,17.3343348 13.1576043,17.4770386 11.7915099,17.4143777 C9.5573897,17.3120172 7.79451416,16.8811159 7.79451416,16.8811159 C7.79451416,17.0986052 7.80792618,17.3056867 7.83475021,17.4993562 C8.12520086,19.7041845 10.0210163,19.8362661 11.8168318,19.8978541 C13.6293854,19.9598712 15.2433339,19.4509657 15.2433339,19.4509657 L15.3177974,21.0895923 C15.3177974,21.0895923 14.0499863,21.7703863 11.7915099,21.8956009 C10.5461236,21.9640558 8.99977167,21.8642704 7.19869871,21.3875536 C3.29247554,20.3536481 2.62069442,16.1898069 2.51790472,11.9649142 C2.48657425,10.710515 2.50588755,9.5276824 2.50588755,8.53841202 C2.50588755,4.21824034 5.33646695,2.95193133 5.33646695,2.95193133 C6.76372017,2.29645923 9.21275451,2.02081545 11.7587845,2 L11.8213382,2 C14.3673682,2.02081545 16.818012,2.29645923 18.2451579,2.95193133 C18.2451579,2.95193133 21.07563,4.21824034 21.07563,8.53841202 C21.07563,8.53841202 21.1111451,11.7258584 20.6808876,13.9388412" fill="#3088D4"></path>
  <path d="M17.7368961,8.87356223 L17.7368961,14.1045708 L15.6644712,14.1045708 L15.6644712,9.0273176 C15.6644712,7.95703863 15.2141494,7.41379828 14.3133983,7.41379828 C13.3174755,7.41379828 12.8183339,8.05821888 12.8183339,9.33246781 L12.8183339,12.1115451 L10.7581408,12.1115451 L10.7581408,9.33246781 C10.7581408,8.05821888 10.2588918,7.41379828 9.2629691,7.41379828 C8.36221803,7.41379828 7.91189614,7.95703863 7.91189614,9.0273176 L7.91189614,14.1045708 L5.83947124,14.1045708 L5.83947124,8.87356223 C5.83947124,7.80446352 6.11168155,6.9548927 6.65846266,6.32635193 C7.22230386,5.69781116 7.96071588,5.37560086 8.87734678,5.37560086 C9.9378618,5.37560086 10.7409734,5.78321888 11.271982,6.59856223 L11.7881837,7.46390558 L12.3044927,6.59856223 C12.835394,5.78321888 13.6385056,5.37560086 14.6991279,5.37560086 C15.6156515,5.37560086 16.3540635,5.69781116 16.918012,6.32635193 C17.4646858,6.9548927 17.7368961,7.80446352 17.7368961,8.87356223" fill="#FFFFFF"></path>
</svg>
